symbolic/apps/preferences-color-symbolic.svg

<svg xmlns="http://www.w3.org/2000/svg" width="16" height="16"><path d="M8 12a4 4 0 0 1-4 4 4 4 0 0 1-4-4 4 4 0 0 1 4-4 4 4 0 0 1 4 4z" opacity=".3" fill="#5d656b"/><path d="M16 12a4 4 0 0 1-4 4 4 4 0 0 1-4-4 4 4 0 0 1 4-4 4 4 0 0 1 4 4z" fill="#5d656b"/><path d="M8 12a4 4 0 0 1-4 4 4 4 0 0 1-4-4 4 4 0 0 1 4-4 4 4 0 0 1 4 4z" opacity=".3" fill="#5d656b"/><path d="M8 1a4 4 0 0 0-4 4 4 4 0 0 0 4 4 4 4 0 0 0 4-4 4 4 0 0 0-4-4zm0 1a3 3 0 0 1 3 3 3 3 0 0 1-3 3 3 3 0 0 1-3-3 3 3 0 0 1 3-3z" fill="#5d656b"/><path d="M4 8a4 4 0 0 0-4 4 4 4 0 0 0 4 4 4 4 0 0 0 4-4 4 4 0 0 0-4-4zm0 1a3 3 0 0 1 3 3 3 3 0 0 1-3 3 3 3 0 0 1-3-3 3 3 0 0 1 3-3z" fill="#5d656b"/></svg>

<svg xmlns="http://www.w3.org/2000/svg" width="16" height="16" version="1.1">
 <path style="opacity:0.3;fill:#323a41" d="M 8,12 A 4,4 0 0 1 4,16 4,4 0 0 1 0,12 4,4 0 0 1 4,8 4,4 0 0 1 8,12 Z"/>
 <path style="fill:#323a41" d="M 16,12 A 4,4 0 0 1 12,16 4,4 0 0 1 8,12 4,4 0 0 1 12,8 4,4 0 0 1 16,12 Z"/>
 <path style="opacity:0.3;fill:#323a41" d="M 8,12 A 4,4 0 0 1 4,16 4,4 0 0 1 0,12 4,4 0 0 1 4,8 4,4 0 0 1 8,12 Z"/>
 <path style="fill:#323a41" d="M 8 1 A 4 4 0 0 0 4 5 A 4 4 0 0 0 8 9 A 4 4 0 0 0 12 5 A 4 4 0 0 0 8 1 z M 8 2 A 3 3 0 0 1 11 5 A 3 3 0 0 1 8 8 A 3 3 0 0 1 5 5 A 3 3 0 0 1 8 2 z"/>
 <path style="fill:#323a41" d="M 4,8 A 4,4 0 0 0 0,12 4,4 0 0 0 4,16 4,4 0 0 0 8,12 4,4 0 0 0 4,8 Z M 4,9 A 3,3 0 0 1 7,12 3,3 0 0 1 4,15 3,3 0 0 1 1,12 3,3 0 0 1 4,9 Z"/>
</svg>
